src/assets/filled/Ghost.svg

<?xml version="1.0" encoding="UTF-8"?>
<svg width="24" height="24" viewBox="0 0 24 24" xmlns="http://www.w3.org/2000/svg">
 <path d="m12 2c-5.5 0-10 4.58-10 10.18v7.89c0 1.26 0.75 1.6 1.67 0.76l1-0.91c0.37-0.34 0.97-0.34 1.34 0l2 1.83c0.37 0.34 0.97 0.34 1.34 0l2-1.83c0.37-0.34 0.97-0.34 1.34 0l2 1.83c0.37 0.34 0.97 0.34 1.34 0l2-1.83c0.37-0.34 0.97-0.34 1.34 0l1 0.91c0.92 0.84 1.67 0.5 1.67-0.76v-7.89c-0.04-5.6-4.54-10.18-10.04-10.18zm0 4.62c1.31 0 2.38 1.07 2.38 2.38s-1.07 2.38-2.38 2.38-2.38-1.07-2.38-2.38 1.07-2.38 2.38-2.38zm4.45 7.98c-1.31 0.98-2.88 1.47-4.45 1.47s-3.14-0.49-4.45-1.47c-0.33-0.25-0.4-0.72-0.15-1.05s0.72-0.4 1.05-0.15c2.09 1.57 5.01 1.57 7.1 0 0.33-0.25 0.8-0.18 1.05 0.15s0.18 0.8-0.15 1.05z"/>
</svg>

<svg width="24" height="24" viewBox="0 0 24 24"  xmlns="http://www.w3.org/2000/svg">
<path d="M12 2C6.5 2 2 6.58 2 12.18V20.07C2 21.33 2.75 21.67 3.67 20.83L4.67 19.92C5.04 19.58 5.64 19.58 6.01 19.92L8.01 21.75C8.38 22.09 8.98 22.09 9.35 21.75L11.35 19.92C11.72 19.58 12.32 19.58 12.69 19.92L14.69 21.75C15.06 22.09 15.66 22.09 16.03 21.75L18.03 19.92C18.4 19.58 19 19.58 19.37 19.92L20.37 20.83C21.29 21.67 22.04 21.33 22.04 20.07V12.18C22 6.58 17.5 2 12 2ZM12 6.62C13.31 6.62 14.38 7.69 14.38 9C14.38 10.31 13.31 11.38 12 11.38C10.69 11.38 9.62 10.31 9.62 9C9.62 7.69 10.69 6.62 12 6.62ZM16.45 14.6C15.14 15.58 13.57 16.07 12 16.07C10.43 16.07 8.86 15.58 7.55 14.6C7.22 14.35 7.15 13.88 7.4 13.55C7.65 13.22 8.12 13.15 8.45 13.4C10.54 14.97 13.46 14.97 15.55 13.4C15.88 13.15 16.35 13.22 16.6 13.55C16.85 13.88 16.78 14.35 16.45 14.6Z" />
</svg>
